X:5089
T:Peter's Peerie Boat
O:england
M:6/8
L:1/8
Q:180
K:D
Ad2 dD2|DEF GAB|cd2 dBe|dc3AB|cd2 dD2|DEF GAB|cd2 AGF|EFD DD2|A
W: D Em A D G A A7 D Em A D A D
d2 dD2|DEF GAB|cd2 dBe|dc3AB|cd2 dD2|DEF GAB|cd2 AGF|EFD DD2|A
W: D Em A D G A A7 D Em A D A D
d2 df2|dc2 ce2|cB2 Bdc|BA3A2|FGF GBA|GF2 Ad3E2 GB3C2 EA2|A
W: D A G D Em D Em A
dc dfe|dcB ced|cB2 Bdc|BA3A2|FGF GBA|GF2 Aa2|gfe dAB|cd3d2|
W: D A G F#m G D G A7 D


